X:21121 
T:MAIDS OF TULLA (reel), The
B:DMI.0783
Z:Nordberg/Black
R:reel
%Q:1/4=180
M:C|
L:1/8
K:A 
a|eA cA EA cA|eAce fedc|bafg afec|defg a2gf|
eA cA EA cA|eAcA fedc|defg afec|dfed cAA :|
e|aAA2 EAcA|aAA2 fedc|bBB2 FBdB|bBB2 defg|
aAA2 EAcA|aAAg fedc|defg afec|dfed cAA :|


%%%

